X:400
T:Statia Donnelly's
M:6/8
R:Jig
Z:As played by the CHB
K:G
D|GED G2A|Bge dBA|GED G2A|BGB AFD|\
GED G2A|Bge dBA|GEE BAB|GEE E2::f|\
g2e fed|ege dBA|gfe afd|Bee e2f|\
gfe fed|e/2f/2ge eBA|GEE BAB|GEE E2:|
